assets/icons/navigation_bar_icons/account_outline.svg

<svg enable-background="new 0 0 48 48" height="48" viewBox="0 0 48 48" width="48" xmlns="http://www.w3.org/2000/svg"><path clip-rule="evenodd" d="m24 45c-11.598 0-21-9.402-21-21s9.402-21 21-21 21 9.402 21 21-9.402 21-21 21zm11.633-6c-.157-.231-.355-.518-.514-.742-.277-.394-.554-.788-.802-1.178-.012-.018-1.382-1.856-6.317-2.08-1.717 0-2.965-1.288-2.968-3.066l-.032-.934c0-.135-.016.148 0 0v-1l1-1c.731-.339 1.66-.909 2.395-1.464l.135-.093c.581-.369 1.393-1.146 1.47-1.443l.036-.381c.373-1.923.964-5.421.964-6.619 0-4.71-2.29-7-7-7-4.775 0-7 2.224-7 7 0 1.23.591 4.711.963 6.616l.035.352c.063.313.799 1.054 1.449 1.462l.098.062c.788.551 1.73 1.165 2.455 1.508l1 1v1c.014.138 0-.146 0 0l-.033.934c0 1.775-1.246 3.064-2.883 3.064-.001 0-.002 0-.003 0-4.956.201-6.393 2.077-6.395 2.077-.252.396-.528.789-.807 1.184-.157.224-.355.51-.513.741 3.217 2.498 7.245 4 11.633 4s8.417-1.502 11.634-4zm-11.633-34c-10.493 0-19 8.507-19 19 0 5.386 2.25 10.237 5.85 13.694.382-.565.79-1.129 1.15-1.694 0 0 1.67-2.743 8-3 .645 0 .967-.422.967-1.066h.001c-.001-.521-.001-.934-.001-.934 0-.13-.021-.247-.027-.373-.724-.342-1.564-.814-2.539-1.494 0 0-2.4-1.476-2.4-3.133 0 0-1-5.116-1-7 0-4.644 1.986-9 9-9 6.92 0 9 4.356 9 9 0 1.838-1 7-1 7 0 1.611-2.4 3.133-2.4 3.133-.955.721-1.801 1.202-2.543 1.546-.005.109-.023.209-.023.321 0 0-.001.413-.001.934h.001c-.002.644.32 1.066.965 1.066 6.424.288 8 3 8 3 .36.565.767 1.129 1.149 1.694 3.6-3.457 5.851-8.308 5.851-13.694 0-10.493-8.507-19-19-19z" fill-rule="evenodd"/></svg>

<?xml version="1.0" ?><!DOCTYPE svg  PUBLIC '-//W3C//DTD SVG 1.1//EN'  'http://www.w3.org/Graphics/SVG/1.1/DTD/svg11.dtd'><svg enable-background="new 0 0 48 48" height="48px" id="Layer_1" version="1.1" viewBox="0 0 48 48" width="48px" xml:space="preserve" xmlns="http://www.w3.org/2000/svg" xmlns:xlink="http://www.w3.org/1999/xlink"><path clip-rule="evenodd" d="M24,45C12.402,45,3,35.598,3,24S12.402,3,24,3s21,9.402,21,21S35.598,45,24,45z   M35.633,39c-0.157-0.231-0.355-0.518-0.514-0.742c-0.277-0.394-0.554-0.788-0.802-1.178C34.305,37.062,32.935,35.224,28,35  c-1.717,0-2.965-1.288-2.968-3.066L25,31c0-0.135-0.016,0.148,0,0v-1l1-1c0.731-0.339,1.66-0.909,2.395-1.464l0.135-0.093  C29.111,27.074,29.923,26.297,30,26l0.036-0.381C30.409,23.696,31,20.198,31,19c0-4.71-2.29-7-7-7c-4.775,0-7,2.224-7,7  c0,1.23,0.591,4.711,0.963,6.616l0.035,0.352c0.063,0.313,0.799,1.054,1.449,1.462l0.098,0.062C20.333,28.043,21.275,28.657,22,29  l1,1v1c0.014,0.138,0-0.146,0,0l-0.033,0.934c0,1.775-1.246,3.064-2.883,3.064c-0.001,0-0.002,0-0.003,0  c-4.956,0.201-6.393,2.077-6.395,2.077c-0.252,0.396-0.528,0.789-0.807,1.184c-0.157,0.224-0.355,0.51-0.513,0.741  c3.217,2.498,7.245,4,11.633,4S32.416,41.498,35.633,39z M24,5C13.507,5,5,13.507,5,24c0,5.386,2.25,10.237,5.85,13.694  C11.232,37.129,11.64,36.565,12,36c0,0,1.67-2.743,8-3c0.645,0,0.967-0.422,0.967-1.066h0.001C20.967,31.413,20.967,31,20.967,31  c0-0.13-0.021-0.247-0.027-0.373c-0.724-0.342-1.564-0.814-2.539-1.494c0,0-2.4-1.476-2.4-3.133c0,0-1-5.116-1-7  c0-4.644,1.986-9,9-9c6.92,0,9,4.356,9,9c0,1.838-1,7-1,7c0,1.611-2.4,3.133-2.4,3.133c-0.955,0.721-1.801,1.202-2.543,1.546  c-0.005,0.109-0.023,0.209-0.023,0.321c0,0-0.001,0.413-0.001,0.934h0.001C27.033,32.578,27.355,33,28,33c6.424,0.288,8,3,8,3  c0.36,0.565,0.767,1.129,1.149,1.694C40.749,34.237,43,29.386,43,24C43,13.507,34.493,5,24,5z" fill-rule="evenodd"/></svg>
